X: 32879
T: Portpatrick
R: jig
M: 6/8
K: Amajor
|:f|ecA ABc|d2c B2A|ecA ABc|B2c d2f|
ecA ABc|dcB B2A|cec BdB|A2A A2:|
|:e|fdf ece|fdf ece|fga ecA|B2c d2f|
efg agf|edc B2A|cec BdB|A2A A2:|
|:f|ecA ABc|d2c B2A|ecA ecA|B2c d2f|
ecA ABc|d2c B2A|c/d/ec dBe|cAA A2:|
|:e|fdf ece|fdf ece|fga edc|B2c d2f|
efg agf|edc B2A|c/d/ec dBe|cAA A2:|

